pages/main-page/img/hard-shelf.svg

<svg width="142" height="113" viewBox="0 0 142 113" fill="none" xmlns="http://www.w3.org/2000/svg">
<rect width="132.642" height="5.07494" transform="matrix(0.866025 0.5 -2.20305e-08 1 0.106934 41.2305)" fill="#EDEDED"/>
<rect width="132.642" height="30.361" transform="matrix(0.866025 0.5 -0.866025 0.5 26.3994 26.0488)" fill="#F6F6F6"/>
<path d="M114.978 107.561L141.182 92.3201L141.182 97.3836L114.978 112.625L114.978 107.561Z" fill="#E3E3E3"/>
<g clip-path="url(#clip0_33_2396)">
<path d="M113.618 85.9466C113.325 83.8987 112.634 81.9279 111.583 80.1462C109.727 77.1669 109.781 74.9491 109.781 74.9491C109.781 74.1169 109.22 73.2847 108.117 72.6272C105.895 71.3456 102.291 71.3456 100.103 72.6272C99.0001 73.268 98.4383 74.1085 98.4383 74.9491C98.4383 74.9491 98.4924 77.1669 96.6407 80.1462C95.6026 81.9029 94.9158 83.8447 94.6185 85.8634C94.2315 87.5278 95.1386 89.2713 97.3523 90.5487C101.097 92.7166 107.176 92.7166 110.909 90.5487C113.056 89.2921 113.951 87.5861 113.618 85.9466Z" fill="#2F2F2F"/>
<circle r="4.67209" transform="matrix(0.866025 -0.5 0.866025 0.5 104.108 75.0371)" fill="black"/>
<path d="M96.2668 67.3578L94.522 43.9941L113.695 55.0638L111.947 76.4077L104.097 74.3612L96.2668 67.3578Z" fill="#E44F26"/>
<path d="M104.108 72.4691L110.453 74.1222L111.946 55.8824L104.108 51.3574L104.108 72.4691Z" fill="#F1672A"/>
<path d="M104.108 59.6491L100.932 57.8152L100.713 54.8814L104.108 56.8414L104.108 54.0994L104.1 54.0944L98.0903 50.625L98.1478 51.3938L98.7371 59.2901L104.108 62.3911L104.108 59.6491Z" fill="#EBEBEB"/>
<path d="M104.108 66.7694L104.098 66.7669L101.425 64.3992L101.254 62.1134L99.9548 61.3633L98.8452 60.7227L99.1815 65.2219L104.097 69.6197L104.108 69.623L104.108 66.7694Z" fill="#EBEBEB"/>
<path d="M104.1 59.6445L104.1 62.3865L107.056 64.0934L106.777 67.4888L104.1 66.7688L104.1 69.6208L109.021 70.9039L109.057 70.4616L109.62 63.569L109.679 62.8658L109.032 62.4924L104.1 59.6445Z" fill="white"/>
<path d="M104.1 54.0957L104.1 55.7984L104.1 56.8311L104.1 56.8377L109.89 60.181L109.898 60.1851L109.945 59.5968L110.056 58.27L110.113 57.5676L104.1 54.0957Z" fill="white"/>
<path d="M113.576 55.0164L114.913 54.245L113.283 75.6363L111.947 76.4077L113.576 55.0164Z" fill="#C43812"/>
<path d="M96.0039 43.2533L114.913 54.2459L113.576 55.0173L94.5241 43.9955L96.0039 43.2533Z" fill="#F1672A"/>
<path d="M94.5615 31.4609L113.614 42.4729L113.614 50.8573L94.588 39.8744L94.5615 31.4609Z" fill="#F1F1F1"/>
<path d="M113.615 42.4746L114.791 41.7956L114.791 50.1792L113.615 50.8582L113.615 42.4746Z" fill="#C4C4C4"/>
<path d="M95.8867 30.7983L114.803 41.7867L113.615 42.4724L94.5604 31.4519L95.8867 30.7983Z" fill="#FEFEFE"/>
<path d="M96.2798 34.5918L97.5 35.2963L97.5 36.6722L98.6211 37.3195L98.6211 35.9436L99.8413 36.6481L99.8413 40.8169L98.6211 40.1124L98.6211 38.7167L97.5 38.0695L97.5 39.4651L96.2798 38.7606L96.2798 34.5918Z" fill="#010101"/>
<path d="M101.439 38.9516L100.366 38.3317L100.366 36.9492L103.733 38.8935L103.733 40.2759L102.66 39.6561L102.66 42.4473L101.439 41.7428L101.439 38.9516Z" fill="#010101"/>
<path d="M104.268 39.2028L105.54 39.9372L106.322 41.8532L107.101 40.8384L108.373 41.5728L108.373 45.7416L107.158 45.0404L107.158 42.9732L106.319 43.9663L106.299 43.9547L105.458 41.9916L105.458 44.0587L104.265 43.37L104.268 39.2028Z" fill="#010101"/>
<path d="M108.984 41.9258L110.204 42.6303L110.204 45.4215L111.919 46.4115L111.919 47.7891L108.984 46.0946L108.984 41.9258Z" fill="#010101"/>
</g>
<g clip-path="url(#clip1_33_2396)">
<path d="M76.4865 65.1314C76.2033 63.1471 75.5335 61.2377 74.515 59.5113C72.7169 56.6247 72.7694 54.4759 72.7694 54.4759C72.7694 53.6695 72.2251 52.8632 71.1567 52.2262C69.0039 50.9845 65.5125 50.9845 63.3919 52.2262C62.3235 52.8471 61.7792 53.6615 61.7792 54.4759C61.7792 54.4759 61.8316 56.6247 60.0375 59.5113C59.0317 61.2134 58.3663 63.0948 58.0782 65.0507C57.7032 66.6634 58.5822 68.3526 60.727 69.5903C64.3554 71.6908 70.2456 71.6908 73.8619 69.5903C75.9422 68.3728 76.809 66.7198 76.4865 65.1314Z" fill="#2F2F2F"/>
<circle r="4.52677" transform="matrix(0.866025 -0.5 0.866025 0.5 67.2732 54.5605)" fill="black"/>
<path d="M75.0672 56.0404L67.2728 53.958L59.4783 47.0402L57.6797 23.5527L76.8658 34.6299L75.0672 56.0404Z" fill="#2363AF"/>
<path d="M67.2729 30.9082L67.2729 52.0213L67.2908 52.0316L73.5981 53.7281L75.0577 35.4027L67.2729 30.9082Z" fill="#3D9CD6"/>
<path d="M67.2729 36.5208L61.6938 35.9772L61.8787 38.7333L67.2729 39.1908L73.0093 39.6776L73.2477 37.1042L67.2729 36.5208Z" fill="white"/>
<path d="M61.6875 35.9743L61.8724 38.7305L67.2731 39.1917L67.2731 36.5217L61.6875 35.9743Z" fill="url(#paint0_linear_33_2396)"/>
<path d="M73.2413 37.1001L67.2729 36.5204L67.2729 39.1904L73.0093 39.6773L73.2413 37.1001Z" fill="url(#paint1_linear_33_2396)"/>
<path d="M61.6953 35.9785L61.8802 38.7347L70.1515 43.54L69.9666 46.9683L67.2436 46.278L64.6259 44.0063L64.4638 41.7192L62.031 40.3146L62.3554 44.7357L67.2728 49.2563L72.1642 50.4362L72.7983 42.3944L61.6953 35.9785Z" fill="url(#paint2_linear_33_2396)"/>
<path opacity="0.05" d="M67.2729 39.1976L61.6938 35.9766L61.8787 38.7327L67.2729 41.8676L67.2729 39.1976ZM67.2729 46.2864L67.2453 46.2705L64.6293 43.9997L64.4672 41.7125L62.0344 40.308L62.3588 44.7291L67.2762 49.2497L67.2729 46.2864Z" fill="#010101"/>
<path d="M61.1846 30.1387L73.2412 37.0996L73.0028 39.673L61.4765 33.0183L61.1846 30.1387V30.1387Z" fill="url(#paint3_linear_33_2396)"/>
<path opacity="0.05" d="M67.2728 33.6539L61.1909 30.1426L61.4828 33.0222L67.2728 36.365L67.2728 33.6539Z" fill="#010101"/>
<path d="M58.416 11.6445L76.95 22.3566L76.95 30.5127L58.4418 19.8289L58.416 11.6445Z" fill="#F1F1F1"/>
<path d="M76.9502 22.3594L78.0942 21.6989L78.0942 29.8541L76.9502 30.5146L76.9502 22.3594Z" fill="#C4C4C4"/>
<path d="M59.7048 10.9999L78.1056 21.689L76.9501 22.3561L58.4146 11.6357L59.7048 10.9999Z" fill="#FEFEFE"/>
<path d="M62.7899 18.9305L62.7899 17.6002L64.4815 18.5768L64.4815 17.1082L61.52 15.3984L61.52 19.5314L64.4815 21.2412L64.4815 19.9071L62.7899 18.9305ZM67.5256 20.3344L68.7079 21.017L68.7079 19.5484L65.753 17.8423L65.753 19.3109C66.1487 19.9953 66.3563 20.3337 66.9288 21.3238L65.753 20.645L65.753 21.979L68.7144 23.6888L68.7144 22.351L67.5256 20.3344ZM71.7229 22.7576L72.9052 23.4403L72.9052 21.9717L69.9438 20.2619L69.9438 21.7305C70.3395 22.4148 70.5471 22.7533 71.1196 23.7434L69.9438 23.0645L69.9438 24.3986L72.9052 26.1084L72.9052 24.7706L71.7229 22.7576Z" fill="#010101"/>
<path d="M76.8457 34.6377L78.1402 33.8903L76.3253 55.3254L75.0308 56.0728L76.8457 34.6377Z" fill="#0C4D9B"/>
<path d="M59.0653 22.7917L78.1402 33.8905L76.8456 34.638L57.6797 23.5512L59.0653 22.7917Z" fill="#3D9CD6"/>
</g>
<g clip-path="url(#clip2_33_2396)">
<path d="M41.132 44.9476C40.8572 43.0222 40.2072 41.1694 39.219 39.4942C37.4742 36.6932 37.5251 34.6081 37.5251 34.6081C37.5251 33.8257 36.9969 33.0433 35.9603 32.4252C33.8712 31.2203 30.4834 31.2203 28.4256 32.4252C27.389 33.0276 26.8608 33.8179 26.8608 34.6081C26.8608 34.6081 26.9117 36.6932 25.1708 39.4942C24.1948 41.1459 23.5491 42.9714 23.2695 44.8694C22.9057 46.4342 23.7586 48.0734 25.8398 49.2744C29.3606 51.3125 35.0761 51.3125 38.5852 49.2744C40.6038 48.0929 41.4449 46.489 41.132 44.9476Z" fill="#2F2F2F"/>
<circle r="4.39254" transform="matrix(0.866025 -0.5 0.866025 0.5 32.1921 34.6895)" fill="black"/>
<path d="M24.3036 27.4233L22.8364 5.87109L40.3587 16.0292L38.8072 35.797L31.6637 34.0611L24.3036 27.4233Z" fill="#E9CA32"/>
<path d="M31.6636 32.0615L31.6636 12.9395L38.8793 17.1332L37.5926 33.4987L31.6636 32.0615Z" fill="#FFDE25"/>
<path d="M30.8907 14.763L28.983 13.6616L28.983 26.3888L27.4993 25.2058L27.4993 23.4925L25.7329 22.1464L25.7329 25.9808L30.8907 30.5088L30.8907 14.763ZM32.3217 15.5892L37.6028 18.6382L37.2495 20.8737L34.3377 19.1925L34.3377 23.1956L37.2495 24.8767L36.8963 32.7523L32.3217 31.335L32.3217 28.8059L35.4125 29.3666L35.591 26.1247L32.3217 24.7838L32.3217 15.5892Z" fill="white"/>
<path d="M40.3124 16.0271L41.5473 15.3142L40.0415 35.0845L38.8066 35.7974L40.3124 16.0271Z" fill="#D5B51A"/>
<path d="M24.0713 5.15625L41.5471 15.3158L40.3122 16.0288L22.8364 5.8692L24.0713 5.15625Z" fill="#FFDE25"/>
</g>
<defs>
<linearGradient id="paint0_linear_33_2396" x1="64.7742" y1="40.8518" x2="67.0791" y2="36.8596" gradientUnits="userSpaceOnUse">
<stop offset="0.39" stop-color="#D2D3D4" stop-opacity="0"/>
<stop offset="1" stop-color="#D2D3D4"/>
</linearGradient>
<linearGradient id="paint1_linear_33_2396" x1="-5966.87" y1="-10784.6" x2="-5951.55" y2="-10811.1" gradientUnits="userSpaceOnUse">
<stop offset="0.39" stop-color="#D2D3D4" stop-opacity="0"/>
<stop offset="1" stop-color="#D2D3D4"/>
</linearGradient>
<linearGradient id="paint2_linear_33_2396" x1="61.997" y1="41.6236" x2="73.0968" y2="41.6236" gradientUnits="userSpaceOnUse">
<stop stop-color="#E8E7E5"/>
<stop offset="1" stop-color="white"/>
</linearGradient>
<linearGradient id="paint3_linear_33_2396" x1="-12273.6" y1="-10696.2" x2="-12080.6" y2="-10696.2" gradientUnits="userSpaceOnUse">
<stop stop-color="#E8E7E5"/>
<stop offset="1" stop-color="white"/>
</linearGradient>
<clipPath id="clip0_33_2396">
<rect width="23.6728" height="73.5519" fill="white" transform="matrix(0.866025 0.5 -2.20305e-08 1 94.4766 18.7676)"/>
</clipPath>
<clipPath id="clip1_33_2396">
<rect width="24.0182" height="71.1664" fill="white" transform="matrix(0.866025 0.5 -2.20305e-08 1 57.5425 0.207031)"/>
</clipPath>
<clipPath id="clip2_33_2396">
<rect width="29.8166" height="46.5597" fill="white" transform="translate(22.6245 4.29688)"/>
</clipPath>
</defs>
</svg>

<svg width="142" height="113" fill="none" xmlns="http://www.w3.org/2000/svg"><path fill="#EDEDED" d="m.107 41.23 114.871 66.322v5.074L.107 46.306z"/><path fill="#F6F6F6" d="m26.4 26.049 114.87 66.32-26.293 15.181L.106 41.23z"/><path d="m114.978 107.561 26.204-15.24v5.063l-26.204 15.241v-5.064Z" fill="#E3E3E3"/><g clip-path="url(#a)"><path d="M113.618 85.947a15.828 15.828 0 0 0-2.035-5.8c-1.856-2.98-1.802-5.198-1.802-5.198 0-.832-.561-1.664-1.664-2.322-2.222-1.281-5.826-1.281-8.014 0-1.103.641-1.665 1.482-1.665 2.322 0 0 .054 2.218-1.797 5.197a15.748 15.748 0 0 0-2.023 5.717c-.386 1.665.52 3.408 2.734 4.686 3.745 2.168 9.824 2.168 13.557 0 2.147-1.257 3.042-2.963 2.709-4.602Z" fill="#2F2F2F"/><circle r="4.672" transform="matrix(.86603 -.5 .86603 .5 104.108 75.037)" fill="#000"/><path d="m96.267 67.358-1.745-23.364 19.173 11.07-1.748 21.344-7.85-2.047-7.83-7.003Z" fill="#E44F26"/><path d="m104.108 72.47 6.345 1.652 1.493-18.24-7.838-4.525V72.47Z" fill="#F1672A"/><path d="m104.108 59.65-3.176-1.835-.219-2.934 3.395 1.96V54.1l-.008-.005-6.01-3.469.058.769.59 7.896 5.37 3.101V59.65ZM104.108 66.77l-.01-.003-2.673-2.368-.171-2.286-1.3-.75-1.109-.64.337 4.499 4.915 4.398.011.003v-2.854Z" fill="#EBEBEB"/><path d="M104.1 59.645v2.741l2.956 1.707-.279 3.396-2.677-.72v2.852l4.921 1.283.036-.442.563-6.893.059-.703-.647-.374-4.932-2.847ZM104.1 54.096v2.742l5.79 3.343.008.004.047-.588.111-1.327.057-.702-6.013-3.472Z" fill="#fff"/><path d="m113.576 55.016 1.337-.771-1.63 21.391-1.336.772 1.629-21.392Z" fill="#C43812"/><path d="m96.004 43.253 18.909 10.993-1.337.771-19.052-11.022 1.48-.742Z" fill="#F1672A"/><path d="m94.561 31.46 19.053 11.013v8.384L94.588 39.874l-.026-8.413Z" fill="#F1F1F1"/><path d="m113.615 42.475 1.176-.68v8.384l-1.176.68v-8.384Z" fill="#C4C4C4"/><path d="m95.887 30.798 18.916 10.989-1.188.685-19.055-11.02 1.327-.654Z" fill="#FEFEFE"/><path d="m96.28 34.592 1.22.704v1.376l1.121.648v-1.376l1.22.704v4.169l-1.22-.705v-1.395l-1.121-.648v1.396l-1.22-.704v-4.17ZM101.439 38.952l-1.073-.62v-1.383l3.367 1.945v1.382l-1.073-.62v2.791l-1.221-.704v-2.791ZM104.268 39.203l1.272.734.782 1.916.779-1.015 1.272.735v4.169l-1.215-.702v-2.067l-.839.993-.02-.011-.841-1.963v2.067l-1.193-.689.003-4.167ZM108.984 41.926l1.22.704v2.791l1.715.99v1.378l-2.935-1.694v-4.17Z" fill="#010101"/></g><g clip-path="url(#b)"><path d="M76.487 65.131a15.32 15.32 0 0 0-1.972-5.62c-1.798-2.886-1.746-5.035-1.746-5.035 0-.806-.544-1.613-1.612-2.25-2.153-1.242-5.644-1.242-7.765 0-1.069.621-1.613 1.435-1.613 2.25 0 0 .053 2.149-1.742 5.035a15.26 15.26 0 0 0-1.959 5.54c-.375 1.612.504 3.302 2.649 4.54 3.628 2.1 9.519 2.1 13.135 0 2.08-1.218 2.947-2.871 2.625-4.46Z" fill="#2F2F2F"/><circle r="4.527" transform="matrix(.86603 -.5 .86603 .5 67.273 54.56)" fill="#000"/><path d="m75.067 56.04-7.794-2.082-7.795-6.918-1.798-23.487L76.866 34.63l-1.799 21.41Z" fill="#2363AF"/><path d="M67.273 30.908v21.113l.018.01 6.307 1.697 1.46-18.325-7.785-4.495Z" fill="#3D9CD6"/><path d="m67.273 36.52-5.58-.543.186 2.756 5.394.458 5.736.487.239-2.574-5.975-.583Z" fill="#fff"/><path d="m61.688 35.974.184 2.757 5.401.46v-2.67l-5.585-.547Z" fill="url(#c)"/><path d="m73.241 37.1-5.968-.58v2.67l5.736.487.232-2.577Z" fill="url(#d)"/><path d="m61.695 35.978.185 2.757 8.271 4.805-.184 3.428-2.723-.69-2.618-2.272-.162-2.287-2.433-1.404.324 4.42 4.918 4.521 4.891 1.18.634-8.042-11.103-6.416Z" fill="url(#e)"/><path opacity=".05" d="m67.273 39.198-5.58-3.221.186 2.756 5.394 3.135v-2.67Zm0 7.088-.028-.016L64.63 44l-.162-2.288-2.433-1.404.325 4.421 4.917 4.52-.003-2.963Z" fill="#010101"/><path d="m61.185 30.139 12.056 6.96-.238 2.574-11.526-6.655-.292-2.88Z" fill="url(#f)"/><path opacity=".05" d="m67.273 33.654-6.082-3.511.292 2.88 5.79 3.342v-2.711Z" fill="#010101"/><path d="M58.416 11.645 76.95 22.357v8.156L58.442 19.829l-.026-8.184Z" fill="#F1F1F1"/><path d="m76.95 22.36 1.144-.661v8.155l-1.144.66V22.36Z" fill="#C4C4C4"/><path d="m59.705 11 18.4 10.689-1.155.667-18.535-10.72 1.29-.636Z" fill="#FEFEFE"/><path d="M62.79 18.93V17.6l1.691.977v-1.469l-2.961-1.71v4.133l2.961 1.71v-1.334l-1.691-.977Zm4.736 1.404 1.182.683v-1.469l-2.955-1.706v1.469c.396.684.603 1.023 1.176 2.013l-1.176-.679v1.334l2.961 1.71V22.35l-1.188-2.017Zm4.197 2.424 1.182.682v-1.468l-2.961-1.71v1.468c.395.685.603 1.023 1.176 2.013l-1.176-.678v1.334l2.961 1.71V24.77l-1.182-2.013Z" fill="#010101"/><path d="m76.846 34.638 1.294-.748-1.815 21.435-1.294.748 1.815-21.435Z" fill="#0C4D9B"/><path d="M59.065 22.792 78.14 33.89l-1.294.747L57.68 23.551l1.385-.76Z" fill="#3D9CD6"/></g><g clip-path="url(#g)"><path d="M41.132 44.948a14.868 14.868 0 0 0-1.913-5.454c-1.745-2.8-1.694-4.886-1.694-4.886 0-.782-.528-1.565-1.565-2.183-2.089-1.205-5.477-1.205-7.534 0-1.037.603-1.565 1.393-1.565 2.183 0 0 .05 2.085-1.69 4.886a14.808 14.808 0 0 0-1.901 5.375c-.364 1.565.489 3.204 2.57 4.405 3.52 2.038 9.236 2.038 12.745 0 2.019-1.181 2.86-2.785 2.547-4.326Z" fill="#2F2F2F"/><circle r="4.393" transform="matrix(.86603 -.5 .86603 .5 32.192 34.69)" fill="#000"/><path d="M24.304 27.423 22.836 5.871 40.36 16.03l-1.552 19.768-7.143-1.736-7.36-6.638Z" fill="#E9CA32"/><path d="M31.664 32.062V12.94l7.215 4.193L37.593 33.5l-5.93-1.438Z" fill="#FFDE25"/><path d="m30.89 14.763-1.907-1.101v12.727l-1.484-1.183v-1.713l-1.766-1.347v3.835l5.158 4.528V14.763Zm1.432.826 5.28 3.05-.352 2.235-2.912-1.681v4.003l2.911 1.68-.353 7.876-4.574-1.417v-2.53l3.09.562.179-3.242-3.27-1.341v-9.195Z" fill="#fff"/><path d="m40.312 16.027 1.235-.713-1.505 19.77-1.235.713 1.505-19.77Z" fill="#D5B51A"/><path d="m24.071 5.156 17.476 10.16-1.235.713-17.476-10.16 1.235-.713Z" fill="#FFDE25"/></g><defs><linearGradient id="c" x1="64.774" y1="40.852" x2="67.079" y2="36.86" gradientUnits="userSpaceOnUse"><stop offset=".39" stop-color="#D2D3D4" stop-opacity="0"/><stop offset="1" stop-color="#D2D3D4"/></linearGradient><linearGradient id="d" x1="-5966.87" y1="-10784.6" x2="-5951.55" y2="-10811.1" gradientUnits="userSpaceOnUse"><stop offset=".39" stop-color="#D2D3D4" stop-opacity="0"/><stop offset="1" stop-color="#D2D3D4"/></linearGradient><linearGradient id="e" x1="61.997" y1="41.624" x2="73.097" y2="41.624" gradientUnits="userSpaceOnUse"><stop stop-color="#E8E7E5"/><stop offset="1" stop-color="#fff"/></linearGradient><linearGradient id="f" x1="-12273.6" y1="-10696.2" x2="-12080.6" y2="-10696.2" gradientUnits="userSpaceOnUse"><stop stop-color="#E8E7E5"/><stop offset="1" stop-color="#fff"/></linearGradient><clipPath id="a"><path fill="#fff" transform="matrix(.86603 .5 0 1 94.477 18.768)" d="M0 0h23.673v73.552H0z"/></clipPath><clipPath id="b"><path fill="#fff" transform="matrix(.86603 .5 0 1 57.542 .207)" d="M0 0h24.018v71.166H0z"/></clipPath><clipPath id="g"><path fill="#fff" transform="translate(22.625 4.297)" d="M0 0h29.817v46.56H0z"/></clipPath></defs></svg>
